fs/table_freeze_row_16_filled.svg

<svg viewBox="0 0 16 16" fill="none" xmlns="http://www.w3.org/2000/svg" height="1em" width="1em">
  <path d="M11.5 3C12.3284 3 13 3.67157 13 4.5V6H11V10H14V4.5C14 3.11929 12.8807 2 11.5 2L4.5 2C3.11929 2 2 3.11929 2 4.5L2 10H5L5 6H3L3 4.5C3 3.67157 3.67157 3 4.5 3L11.5 3ZM10 6L6 6V10H10V6ZM5 11H2L2 11.5C2 12.8807 3.11929 14 4.5 14H5V11ZM6 14H10L10 11H6V14ZM11.5 14H11L11 11H14V11.5C14 12.8807 12.8807 14 11.5 14Z" fill="#212121"/>
</svg>

<svg viewBox="0 0 16 16" fill="none" xmlns="http://www.w3.org/2000/svg" height="1em" width="1em">
  <path d="M11.5 3A1.5 1.5 0 0 1 13 4.5V6h-2v4h3V4.5A2.5 2.5 0 0 0 11.5 2h-7A2.5 2.5 0 0 0 2 4.5V10h3V6H3V4.5A1.5 1.5 0 0 1 4.5 3h7ZM10 6H6v4h4V6Zm-5 5H2v.5A2.5 2.5 0 0 0 4.5 14H5v-3Zm1 3h4v-3H6v3Zm5.5 0H11v-3h3v.5a2.5 2.5 0 0 1-2.5 2.5Z" fill="#212121"/>
</svg>
